X:269
T: KOMM DU BLANKER WEIHEDEGEN
N: F0469
O: Europa, Mitteleuropa, Deutschland
R: Studenten -, Burschenschafts - Lied
M: 3/4
L: 1/8
K: Bb
 | B2d2cA | B2d2cA |
BGF2E2 | D2z2
FF | F2F2Ac | c2B2
Bd | dcecBA | c2B2z2 |
B2d2cA | B2d2cA |
BGF2E2 | D2z2
FF | F2F2Ac | c2B2
Bd | dcecBA | c2B2z2 |
FF | B3cdcBA | AGG2z2 |
GG | c3d=edcB | d2c2z2 |
FF | B2B2c2c2 | def2z2 |
ee | d2ecB2A2 | Bff2z2 |
dd | c2ecB2A2 | c2B2z2

@@@ Tune index: 5700
